X: 1915
T: Arran Boat Song, The
R: waltz
M: 3/4
K: Edorian
|:E3 FE2|B3 cd2|A3 FD2|A2 AF D2|
E3 FE2|B3 cd2|AF3 D2|1 E6:|2 E4 B2||
|:e3 fe2|g3 fe2|d2 dB G2|A2 AF D2|
[1 e3 fe2|g3 fe2|dB3 d2|e6:|
[2 E3 FE2|d3 BG2|AF3 D2|E6||

